svg/color/fyz.svg

<?xml version="1.0" encoding="UTF-8" ?>
<!DOCTYPE svg PUBLIC "-//W3C//DTD SVG 1.1//EN" "http://www.w3.org/Graphics/SVG/1.1/DTD/svg11.dtd">
<svg width="250pt" height="250pt" viewBox="0 0 250 250" version="1.1" xmlns="http://www.w3.org/2000/svg">
<g id="#ffffffff">
<path fill="#ffffff" opacity="1.00" d=" M 0.00 0.00 L 250.00 0.00 L 250.00 250.00 L 0.00 250.00 L 0.00 0.00 M 108.73 2.11 C 81.95 5.58 56.48 18.25 37.49 37.45 C 17.83 57.01 5.08 83.40 2.13 110.99 C -0.79 136.46 4.41 162.83 16.98 185.19 C 31.26 210.99 55.07 231.31 82.80 241.32 C 108.32 250.68 136.95 251.19 162.84 242.97 C 189.51 234.57 212.99 216.72 228.44 193.44 C 251.53 159.34 255.51 113.49 239.01 75.81 C 226.78 47.27 203.37 23.74 174.89 11.37 C 154.25 2.18 131.08 -0.72 108.73 2.11 Z" />
<path fill="#ffffff" opacity="1.00" d=" M 90.26 66.34 C 116.53 66.21 142.82 66.30 169.09 66.30 C 175.20 66.09 180.91 70.91 181.92 76.90 C 183.58 84.29 177.55 92.23 169.92 92.40 C 143.95 92.50 117.97 92.42 92.00 92.43 C 85.11 92.80 78.55 86.89 78.43 79.95 C 77.88 73.23 83.51 66.70 90.26 66.34 Z" />
<path fill="#ffffff" opacity="1.00" d=" M 131.39 113.33 C 137.74 108.23 148.14 109.19 153.12 115.77 C 158.03 121.56 157.60 130.91 152.19 136.22 C 148.17 140.66 141.51 141.88 135.93 140.10 C 132.18 138.65 129.24 135.69 125.43 134.35 C 119.67 132.32 112.93 132.18 107.50 135.26 C 103.46 137.35 99.89 140.98 95.01 140.82 C 86.21 141.90 77.89 133.83 78.45 125.05 C 78.41 116.79 85.90 109.95 94.00 109.83 C 98.27 110.11 102.05 112.04 105.43 114.54 C 113.18 119.92 124.02 118.88 131.39 113.33 Z" />
<path fill="#ffffff" opacity="1.00" d=" M 91.98 155.84 C 99.37 154.82 106.93 159.93 108.80 167.14 C 110.75 173.49 107.81 180.86 102.19 184.33 C 97.48 187.41 91.01 187.53 86.17 184.69 C 81.09 181.79 77.85 175.88 78.46 170.01 C 78.85 162.83 84.91 156.71 91.98 155.84 Z" />
</g>
<g id="#000000ff">
<path fill="#000000" opacity="1.00" d=" M 108.73 2.11 C 131.08 -0.72 154.25 2.18 174.89 11.37 C 203.37 23.74 226.78 47.27 239.01 75.81 C 255.51 113.49 251.53 159.34 228.44 193.44 C 212.99 216.72 189.51 234.57 162.84 242.97 C 136.95 251.19 108.32 250.68 82.80 241.32 C 55.07 231.31 31.26 210.99 16.98 185.19 C 4.41 162.83 -0.79 136.46 2.13 110.99 C 5.08 83.40 17.83 57.01 37.49 37.45 C 56.48 18.25 81.95 5.58 108.73 2.11 M 90.26 66.34 C 83.51 66.70 77.88 73.23 78.43 79.95 C 78.55 86.89 85.11 92.80 92.00 92.43 C 117.97 92.42 143.95 92.50 169.92 92.40 C 177.55 92.23 183.58 84.29 181.92 76.90 C 180.91 70.91 175.20 66.09 169.09 66.30 C 142.82 66.30 116.53 66.21 90.26 66.34 M 131.39 113.33 C 124.02 118.88 113.18 119.92 105.43 114.54 C 102.05 112.04 98.27 110.11 94.00 109.83 C 85.90 109.95 78.41 116.79 78.45 125.05 C 77.89 133.83 86.21 141.90 95.01 140.82 C 99.89 140.98 103.46 137.35 107.50 135.26 C 112.93 132.18 119.67 132.32 125.43 134.35 C 129.24 135.69 132.18 138.65 135.93 140.10 C 141.51 141.88 148.17 140.66 152.19 136.22 C 157.60 130.91 158.03 121.56 153.12 115.77 C 148.14 109.19 137.74 108.23 131.39 113.33 M 91.98 155.84 C 84.91 156.71 78.85 162.83 78.46 170.01 C 77.85 175.88 81.09 181.79 86.17 184.69 C 91.01 187.53 97.48 187.41 102.19 184.33 C 107.81 180.86 110.75 173.49 108.80 167.14 C 106.93 159.93 99.37 154.82 91.98 155.84 Z" />
</g>
</svg>

<?xml version="1.0" encoding="utf-8"?>
<!-- Generator: Adobe Illustrator 26.0.3, SVG Export Plug-In . SVG Version: 6.00 Build 0)  -->
<svg version="1.1" id="Layer_1" xmlns="http://www.w3.org/2000/svg" xmlns:xlink="http://www.w3.org/1999/xlink" x="0px" y="0px"
	 viewBox="0 0 250 250" style="enable-background:new 0 0 250 250;" xml:space="preserve">
<style type="text/css">
	.st0{fill:#FFFFFF;}
</style>
<g id="_x23_ffffffff">
	<path class="st0" d="M90.3,66.3c26.3-0.1,52.6,0,78.8,0c6.1-0.2,11.8,4.6,12.8,10.6c1.7,7.4-4.4,15.3-12,15.5
		c-26,0.1-51.9,0-77.9,0c-6.9,0.4-13.4-5.5-13.6-12.5C77.9,73.2,83.5,66.7,90.3,66.3z"/>
	<path class="st0" d="M131.4,113.3c6.4-5.1,16.8-4.1,21.7,2.4c4.9,5.8,4.5,15.1-0.9,20.5c-4,4.4-10.7,5.7-16.3,3.9
		c-3.8-1.5-6.7-4.4-10.5-5.8c-5.8-2-12.5-2.2-17.9,0.9c-4,2.1-7.6,5.7-12.5,5.6c-8.8,1.1-17.1-7-16.6-15.8c0-8.3,7.5-15.1,15.6-15.2
		c4.3,0.3,8.1,2.2,11.4,4.7C113.2,119.9,124,118.9,131.4,113.3z"/>
	<path class="st0" d="M92,155.8c7.4-1,14.9,4.1,16.8,11.3c1.9,6.4-1,13.7-6.6,17.2c-4.7,3.1-11.2,3.2-16,0.4
		c-5.1-2.9-8.3-8.8-7.7-14.7C78.8,162.8,84.9,156.7,92,155.8z"/>
</g>
<g id="_x23_000000ff">
	<path d="M108.7,2.1c22.3-2.8,45.5,0.1,66.2,9.3c28.5,12.4,51.9,35.9,64.1,64.4c16.5,37.7,12.5,83.5-10.6,117.6
		c-15.4,23.3-38.9,41.1-65.6,49.5c-25.9,8.2-54.5,7.7-80-1.6c-27.7-10-51.5-30.3-65.8-56.1C4.4,162.8-0.8,136.5,2.1,111
		c2.9-27.6,15.7-54,35.4-73.5C56.5,18.2,81.9,5.6,108.7,2.1 M90.3,66.3c-6.8,0.4-12.4,6.9-11.8,13.6c0.1,6.9,6.7,12.9,13.6,12.5
		c26,0,51.9,0.1,77.9,0c7.6-0.2,13.7-8.1,12-15.5c-1-6-6.7-10.8-12.8-10.6C142.8,66.3,116.5,66.2,90.3,66.3 M131.4,113.3
		c-7.4,5.5-18.2,6.6-26,1.2c-3.4-2.5-7.2-4.4-11.4-4.7c-8.1,0.1-15.6,7-15.6,15.2c-0.6,8.8,7.8,16.8,16.6,15.8
		c4.9,0.2,8.4-3.5,12.5-5.6c5.4-3.1,12.2-2.9,17.9-0.9c3.8,1.3,6.7,4.3,10.5,5.8c5.6,1.8,12.2,0.6,16.3-3.9
		c5.4-5.3,5.8-14.7,0.9-20.5C148.1,109.2,137.7,108.2,131.4,113.3 M92,155.8c-7.1,0.9-13.1,7-13.5,14.2c-0.6,5.9,2.6,11.8,7.7,14.7
		c4.8,2.8,11.3,2.7,16-0.4c5.6-3.5,8.6-10.8,6.6-17.2C106.9,159.9,99.4,154.8,92,155.8z"/>
</g>
</svg>
